icons/contentful-dark.svg

<svg width="256" height="256" viewBox="0 0 256 256" fill="none" xmlns="http://www.w3.org/2000/svg">
<rect width="256" height="256" rx="60" fill="#282828"/>
<path d="M104.304 54.6332C111.239 61.5542 113.888 71.6931 111.239 81.1247C119.769 75.9928 129.547 73.2882 139.506 73.302H139.714C154.347 73.3437 168.355 79.2245 178.647 89.6269C186.899 98.2956 200.603 98.6285 209.272 90.3898C217.94 82.1372 218.273 68.4337 210.034 59.765C209.826 59.5431 209.618 59.3351 209.396 59.127C191.019 40.5413 165.984 30.0696 139.839 30.0002H139.464C119.894 29.9586 100.767 35.784 84.5396 46.7134H85.1499C92.3345 46.6996 99.2278 49.5568 104.304 54.647V54.6332Z" fill="#1773EB"/>
<path d="M193.626 161.32C187.912 161.32 182.42 163.581 178.37 167.603C168.05 177.867 154.083 183.637 139.534 183.623H139.326C129.339 183.609 119.561 180.863 111.031 175.676C111.683 178.034 112.002 180.475 112.002 182.916C112.002 197.881 99.8798 210.004 84.9142 210.004H84.2068C100.421 221.044 119.561 226.967 139.173 226.994H139.548C165.54 227.036 190.492 216.745 208.897 198.395C217.386 189.962 217.455 176.258 209.022 167.756C204.958 163.651 199.41 161.348 193.64 161.348V161.32H193.626Z" fill="#E44F20"/>
<path d="M65.7321 163.748C70.7946 158.644 77.7018 155.786 84.8864 155.814C87.3691 155.814 89.8379 156.147 92.2236 156.813C81.6963 139.309 81.7379 117.408 92.3345 99.9461C77.896 103.913 62.9858 95.4107 59.0329 80.986C58.3949 78.6419 58.062 76.2286 58.062 73.7875V73.0524C35.4125 106.34 35.3015 150.072 57.7985 183.471V182.902C57.7707 175.717 60.6279 168.81 65.7321 163.748Z" fill="#FFDA00"/>
<path d="M85.1499 51.5124C78.9916 51.5124 74.6781 54.0645 69.4491 59.2934C64.4698 64.2589 62.9025 68.614 62.8887 73.7875C62.8887 86.0762 72.875 96.0487 85.1637 96.0348C97.4525 96.0348 107.425 86.0485 107.411 73.7598C107.411 61.471 97.4386 51.5124 85.1499 51.5124Z" fill="#1773EB"/>
<path d="M62.5697 182.93C62.5697 189.074 65.1218 193.401 70.3368 198.617C75.3161 203.596 79.6574 205.177 84.8309 205.191C97.0919 205.149 106.995 195.191 106.953 182.93C106.912 170.669 96.9532 160.766 84.6922 160.807C72.4589 160.849 62.5697 170.766 62.5697 182.999V182.93Z" fill="#E44F20"/>
</svg>

<svg xmlns="http://www.w3.org/2000/svg" width="256" height="256" fill="none"><rect width="256" height="256" fill="#282828" rx="60"/><path fill="#1773EB" d="M104.304 54.633a27.09 27.09 0 0 1 6.935 26.492 54.7 54.7 0 0 1 28.267-7.823h.208a55 55 0 0 1 38.933 16.325c8.252 8.669 21.956 9.002 30.625.763 8.668-8.253 9.001-21.956.762-30.625a14 14 0 0 0-.638-.638A98.16 98.16 0 0 0 139.839 30h-.375A97.95 97.95 0 0 0 84.54 46.713h.61a26.98 26.98 0 0 1 19.154 7.934z"/><path fill="#E44F20" d="M193.626 161.32a21.66 21.66 0 0 0-15.256 6.283 55.02 55.02 0 0 1-38.836 16.02h-.208a54.6 54.6 0 0 1-28.295-7.947c.652 2.358.971 4.799.971 7.24 0 14.965-12.122 27.088-27.088 27.088h-.707a97.9 97.9 0 0 0 54.966 16.99h.375a98 98 0 0 0 69.349-28.599c8.489-8.433 8.558-22.137.125-30.639a21.65 21.65 0 0 0-15.382-6.408v-.028z"/><path fill="#FFDA00" d="M65.732 163.748a26.84 26.84 0 0 1 19.154-7.934c2.483 0 4.952.333 7.338.999a54.99 54.99 0 0 1 .11-56.867c-14.438 3.967-29.348-4.535-33.301-18.96a27.4 27.4 0 0 1-.971-7.199v-.735c-22.65 33.288-22.76 77.02-.264 110.419v-.569a26.84 26.84 0 0 1 7.934-19.154"/><path fill="#1773EB" d="M85.15 51.512c-6.158 0-10.472 2.553-15.7 7.781-4.98 4.966-6.547 9.321-6.561 14.494 0 12.29 9.986 22.262 22.275 22.248 12.289 0 22.261-9.986 22.247-22.275 0-12.289-9.972-22.248-22.261-22.248"/><path fill="#E44F20" d="M62.57 182.93c0 6.144 2.552 10.471 7.767 15.687 4.98 4.979 9.32 6.56 14.494 6.574 12.26-.042 22.164-10 22.122-22.261-.041-12.261-10-22.164-22.26-22.123-12.234.042-22.123 9.959-22.123 22.192z"/></svg>
